SharedPackages/Infrastructure/DesignResourcesKitIcons/Sources/DesignResourcesKitIcons/DesignSystemImages.xcassets/Color/24px/AskSiri-Color-24.imageset/AskSiri-Color-24.svg

<svg width="24" height="24" viewBox="0 0 24 24" fill="none" xmlns="http://www.w3.org/2000/svg">
<path fill-rule="evenodd" clip-rule="evenodd" d="M4.83988 17.1167C5.30807 17.5443 5.40425 18.2715 4.99427 18.7552L3.74727 20.2264C3.09577 20.9951 3.74895 22.1435 4.73941 21.9584C8.14139 21.3227 13.6032 20.1939 15.8244 19.131C19.4497 17.7935 22 14.6117 22 10.8993C22 5.98052 17.5228 1.99306 12 1.99306C6.47715 1.99306 2 5.98052 2 10.8993C2 13.3181 3.08264 15.5117 4.83988 17.1167Z" fill="url(#paint0_linear_13193_122856)"/>
<path fill-rule="evenodd" clip-rule="evenodd" d="M4.83988 17.1167C5.30807 17.5443 5.40425 18.2715 4.99427 18.7552L3.74727 20.2264C3.09577 20.9951 3.74895 22.1435 4.73941 21.9584C8.1414 21.3227 13.6032 20.1939 15.8244 19.131C19.4497 17.7935 22 14.6117 22 10.8993C22 5.98052 17.5228 1.99306 12 1.99306C6.47715 1.99306 2 5.98052 2 10.8993C2 13.3181 3.08264 15.5117 4.83988 17.1167Z" fill="url(#paint1_radial_13193_122856)"/>
<path fill-rule="evenodd" clip-rule="evenodd" d="M15.2398 17.7479L15.177 17.778C14.2282 18.2319 12.4534 18.7493 10.3759 19.246C8.80746 19.621 7.14701 19.9661 5.69438 20.2491L6.13853 19.7251C7.14351 18.5394 6.82795 16.901 5.85146 16.0091C4.3706 14.6566 3.5 12.8518 3.5 10.8993C3.5 6.96758 7.1375 3.49306 12 3.49306C16.8625 3.49306 20.5 6.96758 20.5 10.8993C20.5 13.8795 18.4451 16.5654 15.3052 17.7238L15.2398 17.7479ZM15.8244 19.131C13.6032 20.1939 8.14139 21.3227 4.73941 21.9584C3.74895 22.1435 3.09577 20.9951 3.74727 20.2264L4.99427 18.7552C5.40425 18.2715 5.30807 17.5443 4.83988 17.1167C3.08264 15.5117 2 13.3181 2 10.8993C2 5.98052 6.47715 1.99306 12 1.99306C17.5228 1.99306 22 5.98052 22 10.8993C22 14.6117 19.4497 17.7935 15.8244 19.131Z" fill="#040B24" fill-opacity="0.3"/>
<path fill-rule="evenodd" clip-rule="evenodd" d="M20.6601 11.1759H20.6669C20.6669 11.459 20.6359 11.7249 20.5752 11.9721C20.164 14.4077 18.4065 16.4212 16.0605 17.4873L16.0515 17.4914L16.0424 17.4952C12.5439 18.9753 8.93143 19.6535 7.34443 19.9459L5.76752 20.2364L6.55532 18.8398C6.84532 18.3257 6.7801 17.7283 6.48686 17.0884C6.19502 16.4516 5.73268 15.9068 5.48074 15.6436C4.46641 14.5839 3.77454 13.2639 3.5661 11.8044C3.53289 11.6044 3.51184 11.3949 3.50385 11.1759H3.50022C3.50022 11.1425 3.50053 11.1093 3.50114 11.0763C3.50053 11.0427 3.50022 11.0089 3.50022 10.9748C3.49972 10.9416 3.50022 10.9083 3.50022 10.875C3.50022 6.65097 7.45641 3.41663 12.0836 3.41663C16.7107 3.41663 20.6669 6.65097 20.6669 10.875C20.6669 10.8955 20.6668 10.916 20.6666 10.9365C20.6668 10.9492 20.6669 10.962 20.6669 10.9748C20.6659 11.0421 20.6631 11.1092 20.6601 11.1759ZM5.00275 11.0354C5.04509 9.86953 5.61483 9.16211 6.33137 8.80005C7.11566 8.40376 8.1243 8.39957 8.93985 8.78979C9.8747 9.23709 11.1822 10.1942 12.4697 11.1798C12.7121 11.3654 12.9543 11.5523 13.191 11.735C13.566 12.0244 13.9272 12.3032 14.2539 12.5493C14.7802 12.9458 15.2704 13.2991 15.6361 13.5022C16.2971 13.8693 17.2394 14.0759 18.132 13.974C17.4864 14.8639 16.5659 15.6083 15.4488 16.1177C12.7885 17.242 10.0427 17.8856 8.2406 18.2474C8.26737 17.5933 8.08432 16.9738 7.85051 16.4636C7.56386 15.838 7.17052 15.3031 6.8603 14.936C7.73496 15.0714 8.65456 14.9838 9.4721 14.7471C10.1702 14.545 10.9276 14.1888 11.6391 13.78C11.9983 13.5737 12.0987 13.1079 11.8752 12.7591C11.6517 12.4104 11.1889 12.3111 10.8286 12.5155C10.2089 12.867 9.58842 13.1518 9.05501 13.3062C8.07845 13.5889 7.02191 13.5681 6.25207 13.2054C5.67286 12.9325 5.20251 12.4455 5.05138 11.5937C5.02502 11.4098 5.00868 11.2235 5.00275 11.0354ZM19.104 11.6691C19.0553 11.8363 18.9834 11.9594 18.9059 12.0521C18.7605 12.2259 18.5408 12.3574 18.244 12.4328C17.62 12.5912 16.8362 12.4529 16.3644 12.1908C16.1034 12.0459 15.6928 11.7553 15.1566 11.3513C14.8349 11.1089 14.4876 10.8408 14.1195 10.5567C13.8818 10.3733 13.6352 10.1829 13.3815 9.98876C12.1232 9.02542 10.6891 7.96389 9.58727 7.4367C8.66467 6.99526 7.584 6.88495 6.58753 7.12178C7.86767 5.79094 9.82309 4.91663 12.0836 4.91663C15.1396 4.91663 17.6381 6.51471 18.6642 8.67847C17.7691 8.4744 16.7241 8.60196 15.9504 9.03011C15.6264 9.20939 15.5448 9.6328 15.7482 9.94219L15.8983 10.1705C16.067 10.4273 16.4079 10.4913 16.6767 10.3425C17.1239 10.0951 17.8249 10.0067 18.3944 10.1566C18.6694 10.2289 18.8646 10.344 18.984 10.4708C19.0863 10.5796 19.16 10.7235 19.1664 10.9431C19.1631 11.1883 19.142 11.4306 19.104 11.6691Z" fill="white"/>
<defs>
<linearGradient id="paint0_linear_13193_122856" x1="3.5625" y1="4.17894" x2="21.9897" y2="18.5565" gradientUnits="userSpaceOnUse">
<stop offset="0.085" stop-color="#2CC1FF"/>
<stop offset="0.835" stop-color="#FF2C63"/>
</linearGradient>
<radialGradient id="paint1_radial_13193_122856" cx="0" cy="0" r="1" gradientTransform="matrix(6.25 -9.99261 -10 -6.24538 7 17.6065)" gradientUnits="userSpaceOnUse">
<stop stop-color="#FEAA37"/>
<stop offset="0.965" stop-color="#FEAA37" stop-opacity="0"/>
</radialGradient>
</defs>
</svg>

<svg fill="none" viewBox="0 0 24 24" xmlns="http://www.w3.org/2000/svg">
  <path fill="url(#AskSiri-Color-24_svg__a)" fill-rule="evenodd" d="M4.84 17.117c.468.427.564 1.154.154 1.638l-1.247 1.471c-.651.77.002 1.918.992 1.732 3.402-.635 8.864-1.764 11.085-2.827C19.45 17.794 22 14.611 22 10.899c0-4.918-4.477-8.906-10-8.906S2 5.981 2 10.9c0 2.42 1.083 4.613 2.84 6.218Z" clip-rule="evenodd"/>
  <path fill="url(#AskSiri-Color-24_svg__b)" fill-rule="evenodd" d="M4.84 17.117c.468.427.564 1.154.154 1.638l-1.247 1.471c-.651.77.002 1.918.992 1.732 3.402-.635 8.864-1.764 11.085-2.827C19.45 17.794 22 14.611 22 10.899c0-4.918-4.477-8.906-10-8.906S2 5.981 2 10.9c0 2.42 1.083 4.613 2.84 6.218Z" clip-rule="evenodd"/>
  <path fill="#040B24" fill-opacity=".3" fill-rule="evenodd" d="m15.24 17.748-.063.03c-.949.454-2.724.971-4.801 1.468-1.569.375-3.229.72-4.682 1.003l.445-.524c1.005-1.186.689-2.824-.288-3.716C4.371 14.657 3.5 12.852 3.5 10.9c0-3.931 3.638-7.406 8.5-7.406 4.863 0 8.5 3.475 8.5 7.406 0 2.98-2.055 5.666-5.195 6.825l-.065.024Zm.584 1.383c-2.22 1.063-7.683 2.192-11.085 2.827-.99.186-1.643-.963-.992-1.732l1.247-1.47c.41-.485.314-1.212-.154-1.64C3.083 15.513 2 13.319 2 10.9c0-4.918 4.477-8.906 10-8.906S22 5.981 22 10.9c0 3.713-2.55 6.895-6.176 8.232Z" clip-rule="evenodd"/>
  <path fill="#fff" fill-rule="evenodd" d="M20.66 11.176h.007c0 .283-.031.549-.092.796-.411 2.436-2.168 4.45-4.514 5.515l-.01.004-.009.004c-3.498 1.48-7.11 2.159-8.698 2.45l-1.576.291.787-1.396c.29-.514.225-1.112-.068-1.752-.292-.636-.754-1.181-1.006-1.444-1.015-1.06-1.706-2.38-1.915-3.84-.033-.2-.054-.41-.062-.628H3.5l.001-.1v-.201c0-4.224 3.955-7.458 8.583-7.458 4.627 0 8.583 3.234 8.583 7.458a6.304 6.304 0 0 1-.007.3Zm-15.657-.14C5.045 9.87 5.615 9.161 6.33 8.8c.785-.396 1.793-.4 2.609-.01.935.447 2.242 1.404 3.53 2.39.242.185.484.372.721.555.375.29.736.568 1.063.814.526.397 1.016.75 1.382.953.661.367 1.603.574 2.496.472-.646.89-1.566 1.634-2.683 2.144-2.66 1.124-5.406 1.768-7.208 2.13.026-.655-.157-1.274-.39-1.784a6.87 6.87 0 0 0-.99-1.528 6.161 6.161 0 0 0 2.611-.189c.698-.202 1.456-.558 2.167-.967a.723.723 0 0 0 .236-1.02.782.782 0 0 0-1.046-.245c-.62.352-1.24.637-1.774.791-.977.283-2.033.262-2.803-.1-.58-.274-1.05-.76-1.2-1.612a5.057 5.057 0 0 1-.05-.559Zm14.101.633a1.04 1.04 0 0 1-.198.383c-.145.174-.365.305-.662.38-.624.16-1.408.02-1.88-.241-.26-.145-.671-.436-1.207-.84a94.8 94.8 0 0 1-1.037-.794l-.738-.568c-1.259-.964-2.693-2.025-3.795-2.552a4.573 4.573 0 0 0-3-.315c1.28-1.331 3.236-2.205 5.497-2.205 3.056 0 5.554 1.598 6.58 3.761-.895-.204-1.94-.076-2.714.352-.324.18-.405.603-.202.912l.15.229c.169.256.51.32.779.171.447-.247 1.148-.335 1.717-.185.275.072.47.187.59.314a.678.678 0 0 1 .182.472 5.042 5.042 0 0 1-.062.726Z" clip-rule="evenodd"/>
  <defs>
    <radialGradient id="AskSiri-Color-24_svg__b" cx="0" cy="0" r="1" gradientTransform="matrix(6.24999 -9.9926 9.99583 6.252 7 17.607)" gradientUnits="userSpaceOnUse">
      <stop stop-color="#FEAA37"/>
      <stop offset=".965" stop-color="#FEAA37" stop-opacity="0"/>
    </radialGradient>
    <linearGradient id="AskSiri-Color-24_svg__a" x1="3.563" x2="21.99" y1="4.179" y2="18.556" gradientUnits="userSpaceOnUse">
      <stop offset=".085" stop-color="#2CC1FF"/>
      <stop offset=".835" stop-color="#FF2C63"/>
    </linearGradient>
  </defs>
</svg>
